icons/3_Generic/Ethereum.svg

<svg width="1024" height="1024" viewBox="0 0 1024 1024" fill="none" xmlns="http://www.w3.org/2000/svg">
<g clip-path="url(#clip0_3_383)">
<path d="M512 1024C794.77 1024 1024 794.77 1024 512C1024 229.23 794.77 0 512 0C229.23 0 0 229.23 0 512C0 794.77 229.23 1024 512 1024Z" fill="#8C72BD"/>
<path d="M738.289 502.95L523.519 229.61C518.529 223.25 509.319 222.14 502.959 227.13C502.039 227.85 501.209 228.69 500.479 229.61L285.709 502.95C283.678 505.531 282.574 508.721 282.574 512.005C282.574 515.29 283.678 518.479 285.709 521.06L500.479 794.4C505.469 800.76 514.679 801.87 521.039 796.88C521.959 796.16 522.789 795.32 523.519 794.4L738.289 521.06C742.469 515.75 742.469 508.26 738.289 502.95ZM526.649 281.01L703.739 506.4L526.649 586.94V281.02V281.01ZM497.359 586.88L320.269 506.34L497.359 281V586.87V586.88ZM497.359 619.05V743.01L345.849 550.21L497.359 619.06V619.05ZM526.649 619.05L678.159 550.2L526.649 743V619.04V619.05Z" fill="white"/>
</g>
<defs>
<clipPath id="clip0_3_383">
<rect width="1024" height="1024" fill="white"/>
</clipPath>
</defs>
</svg>

<svg xmlns="http://www.w3.org/2000/svg" width="1024" height="1024" fill="none">
   <g clip-path="url(#a)">
      <path fill="#8C72BD" d="M512 1024c282.77 0 512-229.23 512-512S794.77 0 512 0 0 229.23 0 512s229.23 512 512 512Z"/>
      <path fill="#fff" d="m738.289 502.95-214.77-273.34c-4.99-6.36-14.2-7.47-20.56-2.48-.92.72-1.75 1.56-2.48 2.48l-214.77 273.34a14.644 14.644 0 0 0 0 18.11l214.77 273.34c4.99 6.36 14.2 7.47 20.56 2.48.92-.72 1.75-1.56 2.48-2.48l214.77-273.34c4.18-5.31 4.18-12.8 0-18.11Zm-211.64-221.94 177.09 225.39-177.09 80.54V281.01Zm-29.29 305.87-177.09-80.54L497.359 281v305.88Zm0 32.17v123.96l-151.51-192.8 151.51 68.85v-.01Zm29.29 0 151.51-68.85L526.649 743V619.04v.01Z"/>
   </g>
   <defs>
      <clipPath id="a">
         <path fill="#fff" d="M0 0h1024v1024H0z"/>
      </clipPath>
   </defs>
</svg>
